X: 22960
T: Lass Of Ballintra, The
R: reel
M: 4/4
K: Fmajor
f3d|cFAc defd|cFAF CFAd|cFAc defa|gece f2 ed|
cF F/F/F dF F/F/F|cFAF CFAd|cFAc defa|gece f3 a||
fcfa gdga|b/b/b ag fdde|fcaf gdbg|afde fcde|
fcfa gdga|b/b/b ag fdde|defd cFAc|dfeg f3 d||

